papirus/32x32/apps/pencil.svg

<svg height="32" viewBox="0 0 32 32.000001" width="32" xmlns="http://www.w3.org/2000/svg"><circle cx="16" cy="15.999994" fill="#ccc" r="13.999994"/><path d="m19 11l-7 3.599609v14.810547a13.999994 13.999994 0 0 0 4 .589844 13.999994 13.999994 0 0 0  10-4.220703v-11.179688z" fill="#4e4e4e" fill-rule="evenodd"/><path d="m19 12l-6 3.300781v14.363281a13.999994 13.999994 0 0 0 3 .335938 13.999994 13.999994 0 0 0  9-3.294922v-11.404297z" fill="#fea332" fill-rule="evenodd"/><path d="m21 15a2.0000001 1.0000405 0 0 1 -1 .86602 2.0000001 1.0000405 0 0 1 -2 0 2.0000001 1.0000405 0 0 1 -1-.86602" fill="#4e4e4e"/><path d="m16 2a13.999994 13.999994 0 0 0 -14 14 13.999994 13.999994 0 0 0  .0214844.585938 13.999994 13.999994 0 0 1  13.9785156-13.585938 13.999994 13.999994 0 0 1  13.978516 13.414062 13.999994 13.999994 0 0 0  .021484-.414062 13.999994 13.999994 0 0 0 -14-14z" fill="#fff" opacity=".2"/><path d="m29.978516 15.414062a13.999994 13.999994 0 0 1 -13.978516 13.585938 13.999994 13.999994 0 0 1 -13.9785156-13.414062 13.999994 13.999994 0 0 0 -.0214844.414062 13.999994 13.999994 0 0 0  14 14 13.999994 13.999994 0 0 0  14-14 13.999994 13.999994 0 0 0 -.021484-.585938z" opacity=".3"/></svg>

<?xml version="1.0" encoding="UTF-8" standalone="no"?>
<svg
   xmlns:dc="http://purl.org/dc/elements/1.1/"
   xmlns:cc="http://creativecommons.org/ns#"
   xmlns:rdf="http://www.w3.org/1999/02/22-rdf-syntax-ns#"
   xmlns:svg="http://www.w3.org/2000/svg"
   xmlns="http://www.w3.org/2000/svg"
   xmlns:sodipodi="http://sodipodi.sourceforge.net/DTD/sodipodi-0.dtd"
   xmlns:inkscape="http://www.inkscape.org/namespaces/inkscape"
   version="1.1"
   id="svg2"
   viewBox="0 0 32 32.000001"
   height="32"
   width="32"
   inkscape:version="0.91 r13725"
   sodipodi:docname="pencil.svg">
  <sodipodi:namedview
     pagecolor="#ffffff"
     bordercolor="#666666"
     borderopacity="1"
     objecttolerance="10"
     gridtolerance="10"
     guidetolerance="10"
     inkscape:pageopacity="0"
     inkscape:pageshadow="2"
     inkscape:window-width="1600"
     inkscape:window-height="849"
     id="namedview16"
     showgrid="false"
     inkscape:zoom="8.08"
     inkscape:cx="13.421134"
     inkscape:cy="11.433436"
     inkscape:window-x="0"
     inkscape:window-y="0"
     inkscape:window-maximized="1"
     inkscape:current-layer="svg2" />
  <defs
     id="defs4" />
  <metadata
     id="metadata7">
    <rdf:RDF>
      <cc:Work
         rdf:about="">
        <dc:format>image/svg+xml</dc:format>
        <dc:type
           rdf:resource="http://purl.org/dc/dcmitype/StillImage" />
        <dc:title></dc:title>
      </cc:Work>
    </rdf:RDF>
  </metadata>
  <circle
     r="13.999994"
     cy="15.999994"
     cx="16"
     id="circle4196"
     style="opacity:1;fill:#cccccc;fill-opacity:1;stroke:none;stroke-width:10;stroke-miterlimit:4;stroke-dasharray:none;stroke-opacity:1" />
  <path
     style="fill:#4e4e4e;fill-opacity:1;fill-rule:evenodd;stroke:none;stroke-width:1px;stroke-linecap:butt;stroke-linejoin:miter;stroke-opacity:1"
     d="M 19 11 L 12 14.599609 L 12 29.410156 A 13.999994 13.999994 0 0 0 16 30 A 13.999994 13.999994 0 0 0 26 25.779297 L 26 14.599609 L 19 11 z "
     id="path4201" />
  <path
     style="fill:#fea332;fill-opacity:1;fill-rule:evenodd;stroke:none;stroke-width:1px;stroke-linecap:butt;stroke-linejoin:miter;stroke-opacity:1"
     d="M 19 12 L 13 15.300781 L 13 29.664062 A 13.999994 13.999994 0 0 0 16 30 A 13.999994 13.999994 0 0 0 25 26.705078 L 25 15.300781 L 19 12 z "
     id="path4203" />
  <path
     inkscape:connector-curvature="0"
     style="opacity:1;fill:#4e4e4e;fill-opacity:1;stroke:none;stroke-width:10;stroke-miterlimit:4;stroke-dasharray:none;stroke-opacity:1"
     id="path4212"
     d="m 21,15 a 2.0000001,1.0000405 0 0 1 -1,0.86602 2.0000001,1.0000405 0 0 1 -2,0 A 2.0000001,1.0000405 0 0 1 17,15" />
  <path
     style="opacity:0.2;fill:#ffffff;fill-opacity:1;stroke:none;stroke-width:10;stroke-miterlimit:4;stroke-dasharray:none;stroke-opacity:1"
     d="M 16 2 A 13.999994 13.999994 0 0 0 2 16 A 13.999994 13.999994 0 0 0 2.0214844 16.585938 A 13.999994 13.999994 0 0 1 16 3 A 13.999994 13.999994 0 0 1 29.978516 16.414062 A 13.999994 13.999994 0 0 0 30 16 A 13.999994 13.999994 0 0 0 16 2 z "
     id="circle4155" />
  <path
     style="opacity:0.3;fill:#000000;fill-opacity:1;stroke:none;stroke-width:10;stroke-miterlimit:4;stroke-dasharray:none;stroke-opacity:1"
     d="M 29.978516 15.414062 A 13.999994 13.999994 0 0 1 16 29 A 13.999994 13.999994 0 0 1 2.0214844 15.585938 A 13.999994 13.999994 0 0 0 2 16 A 13.999994 13.999994 0 0 0 16 30 A 13.999994 13.999994 0 0 0 30 16 A 13.999994 13.999994 0 0 0 29.978516 15.414062 z "
     id="circle4160" />
</svg>
